X: 5660
T: Bwced
R: slip jig
M: 9/8
K: Gmajor
A2 c|:Bcd dBG B2 d|ee/f/g dBG A2 c|BB/c/d dBG Bcd|A^GA AFD ABc:|
|:B^AB EFE E2 E|B^AB EFE c2 F|B^AB EFE EE/F/G|1 A^GA AFD D2 c:|2 A2 A D2 A c2 A||

